icons/CreditCard_filled.svg

<svg width="24" height="24" viewBox="0 0 24 24" fill="none" xmlns="http://www.w3.org/2000/svg">
<path fill-rule="evenodd" clip-rule="evenodd" d="M2.25,7c0,-1.51878 1.23122,-2.75 2.75,-2.75h14c1.5188,0 2.75,1.23122 2.75,2.75v2.25h-0.75h-0.75h-16.5h-0.75h-0.75zM21,10.75h0.75v6.25c0,1.5188 -1.2312,2.75 -2.75,2.75h-14c-1.51878,0 -2.75,-1.2312 -2.75,-2.75v-6.25h0.75h0.75h16.5zM10,15.75h3c0.4142,0 0.75,-0.3358 0.75,-0.75c0,-0.4142 -0.3358,-0.75 -0.75,-0.75h-3c-0.41421,0 -0.75,0.3358 -0.75,0.75c0,0.4142 0.33579,0.75 0.75,0.75zM7,14.125c-0.48325,0 -0.875,0.3918 -0.875,0.875c0,0.4832 0.39175,0.875 0.875,0.875c0.48325,0 0.875,-0.3918 0.875,-0.875c0,-0.4832 -0.39175,-0.875 -0.875,-0.875z" fill="#002B51"/>
</svg>

<svg width="24" height="24" viewBox="0 0 24 24" fill="none" xmlns="http://www.w3.org/2000/svg">
<path fill-rule="evenodd" clip-rule="evenodd" d="M2.25 7C2.25 5.48122 3.48122 4.25 5 4.25H19C20.5188 4.25 21.75 5.48122 21.75 7V9.25H21H20.25H3.75H3H2.25V7ZM21 10.75H21.75V17C21.75 18.5188 20.5188 19.75 19 19.75H5C3.48122 19.75 2.25 18.5188 2.25 17V10.75H3H3.75H20.25H21ZM9.25 15C9.25 14.5858 9.58579 14.25 10 14.25H13C13.4142 14.25 13.75 14.5858 13.75 15C13.75 15.4142 13.4142 15.75 13 15.75H10C9.58579 15.75 9.25 15.4142 9.25 15ZM7 14.125C6.51675 14.125 6.125 14.5168 6.125 15C6.125 15.4832 6.51675 15.875 7 15.875C7.48325 15.875 7.875 15.4832 7.875 15C7.875 14.5168 7.48325 14.125 7 14.125Z" fill="#002B51"/>
</svg>
